communes/182.svg

<?xml version="1.0" encoding="UTF-8" standalone="no"?>
<svg
   xmlns:dc="http://purl.org/dc/elements/1.1/"
   xmlns:cc="http://creativecommons.org/ns#"
   xmlns:rdf="http://www.w3.org/1999/02/22-rdf-syntax-ns#"
   xmlns:svg="http://www.w3.org/2000/svg"
   xmlns="http://www.w3.org/2000/svg"
   xmlns:sodipodi="http://sodipodi.sourceforge.net/DTD/sodipodi-0.dtd"
   xmlns:inkscape="http://www.inkscape.org/namespaces/inkscape"
   version="1.0"
   width="223.95522"
   height="262.32858"
   id="svg2780"
   sodipodi:docname="182.svg">
  <metadata
     id="metadata19">
    <rdf:RDF>
      <cc:Work
         rdf:about="">
        <dc:format>image/svg+xml</dc:format>
        <dc:type
           rdf:resource="http://purl.org/dc/dcmitype/StillImage" />
      </cc:Work>
    </rdf:RDF>
  </metadata>
  <sodipodi:namedview
     pagecolor="#ffffff"
     bordercolor="#666666"
     borderopacity="1"
     objecttolerance="10"
     gridtolerance="10"
     guidetolerance="10"
     inkscape:pageopacity="0"
     inkscape:pageshadow="2"
     inkscape:window-width="640"
     inkscape:window-height="480"
     id="namedview17" />
  <defs
     id="defs2782" />
  <g
     transform="translate(-12.917001,-793.29466)"
     id="layer1">
    <path
       d="M 13.917001,794.29466 L 17.952546,963.81099 C 20.835071,1084.894 228.95413,1084.894 231.83667,963.81099 L 235.87222,794.29466 L 13.917001,794.29466 z "
       style="fill:#fdeb00;fill-opacity:1;fill-rule:evenodd;stroke:#000000;stroke-width:2;stroke-linecap:butt;stroke-miterlimit:4;stroke-dashoffset:0;stroke-opacity:1"
       id="path3282" />
    <path
       d="M 112.4166,852.75123 C 112.17756,844.76639 107.07854,837.25104 99.721628,832.69543 C 92.419934,828.17401 77.344917,830.02008 71.605416,836.94889 C 65.916945,843.81609 63.65158,859.24169 74.863751,864.36405 C 86.122542,869.50771 93.394445,858.02563 91.205349,850.02553 C 89.007344,841.99287 83.774085,841.79908 76.029296,842.15923 C 80.149544,835.474 87.469931,834.98758 92.767886,840.50935 C 95.364204,839.13437 101.31837,843.06671 100.53527,847.0781 L 98.964664,863.37018 C 99.20187,866.96245 96.166409,870.26385 91.303976,870.41296 C 90.547438,874.59609 85.895011,877.86597 80.209864,874.63752 C 78.652582,877.11013 72.082432,879.05195 67.489286,874.29442 C 61.882607,876.00301 57.385643,872.15194 57.192533,868.00735 C 51.753289,866.71893 50.027754,860.26582 50.699093,856.29349 C 46.20202,851.57465 47.701049,845.26894 50.808449,842.10188 C 48.760556,835.49207 50.693806,829.95639 56.165495,828.65353 C 56.813194,821.77507 62.084576,817.68926 67.173142,818.03269 C 69.928633,811.78923 76.12263,809.67035 82.409794,811.53156 C 86.507983,806.45909 92.952876,807.16554 97.782193,810.53358 C 104.82925,807.69507 110.76518,810.03325 113.81298,816.1168 C 122.99733,814.77584 126.46536,821.88234 125.97407,827.36949 C 132.04225,828.90684 134.68029,831.83152 133.51541,838.59823 L 112.4166,852.75123 z "
       style="opacity:1;color:#000000;fill:#000000;fill-opacity:1;fill-rule:evenodd;stroke:#fdeb00;stroke-width:1px;stroke-linecap:round;stroke-linejoin:round;marker:none;marker-start:none;marker-mid:none;marker-end:none;stroke-miterlimit:4;stroke-dasharray:none;stroke-dashoffset:0;stroke-opacity:1;visibility:visible;display:inline;overflow:visible;enable-background:accumulate"
       id="path3271" />
    <path
       d="M 104.97979,864.01076 C 89.714919,863.58902 82.991296,856.42519 78.586238,849.72951 C 91.851609,841.73661 105.25152,848.49609 111.88848,852.72495 L 104.97979,864.01076 z "
       style="opacity:1;color:#000000;fill:#000000;fill-opacity:1;fill-rule:evenodd;stroke:#fdeb00;stroke-width:1px;stroke-linecap:round;stroke-linejoin:round;marker:none;marker-start:none;marker-mid:none;marker-end:none;stroke-miterlimit:4;stroke-dasharray:none;stroke-dashoffset:0;stroke-opacity:1;visibility:visible;display:inline;overflow:visible;enable-background:accumulate"
       id="path3263" />
    <path
       d="M 94.620649,851.57963 C 105.19279,853.34166 107.57152,856.16089 108.36443,856.9538"
       style="opacity:1;color:#000000;fill:none;fill-opacity:1;fill-rule:evenodd;stroke:#fdeb00;stroke-width:1px;stroke-linecap:round;stroke-linejoin:round;marker:none;marker-start:none;marker-mid:none;marker-end:none;stroke-miterlimit:4;stroke-dasharray:none;stroke-dashoffset:0;stroke-opacity:1;visibility:visible;display:inline;overflow:visible;enable-background:accumulate"
       id="path3265" />
    <path
       d="M 105.00773,864.12649 L 120.69859,908.58108 C 114.7614,927.78846 94.796852,918.44842 78.410036,956.50812 C 74.693597,957.63464 69.71199,963.89243 70.833335,967.25646 C 66.503172,970.65533 64.087558,976.61829 68.1903,982.23366 C 62.898624,985.98725 66.453112,994.10162 68.263286,996.36007 C 65.641418,999.73106 68.127898,1007.712 71.361942,1008.8402 C 70.250711,1015.4566 73.37567,1022.0729 78.494132,1022.7088 C 80.736821,1029.1877 82.719808,1031.4278 87.963265,1032.0534 C 93.21994,1032.6806 116.92445,1034.7071 130.81193,1030.8682 C 144.58362,1027.0612 170.9454,1018.8568 172.06412,1011.447 C 173.18547,1004.0197 167.74462,999.32528 167.74462,999.32528 C 169.67938,995.09642 168.74849,990.99216 167.56841,986.63871 C 170.18661,983.24466 171.43428,978.10628 170.43926,973.21711 C 173.60744,969.62547 175.2805,963.41736 173.83871,959.20276 C 176.90368,954.57701 177.60136,949.70208 176.05635,944.95175 C 178.6372,941.29425 178.72616,935.51867 177.81837,932.23495 C 178.91835,928.54895 181.01506,923.9908 179.12478,919.80642 C 181.20552,915.29815 179.92222,910.41609 178.14055,905.40944 L 157.19385,876.13848 C 167.89329,883.31676 180.34695,884.38919 193.06614,883.91276 C 189.73816,875.36241 180.30507,866.56288 166.5112,863.74385 L 142.19528,838.80496 C 130.11168,834.85523 126.55602,841.13834 126.55602,841.13834 C 122.49084,840.84101 119.9208,843.16014 118.97047,846.10225 C 115.82193,846.39347 112.55654,848.8034 110.89539,851.58589 C 108.52811,852.33345 104.53361,856.43968 105.00773,864.12649 z "
       style="fill:#000000;fill-opacity:1;fill-rule:evenodd;stroke:#fdeb00;stroke-width:1px;stroke-linecap:round;stroke-linejoin:round;stroke-opacity:1"
       id="path2278" />
    <path
       d="M 79.117101,951.93953 C 77.497381,958.54301 78.244944,965.64486 79.74007,968.63511 C 77.123599,972.3826 77.580443,978.47802 80.612227,981.71746 C 80.196914,988.03022 81.401322,993.8446 83.851668,998.03926 C 85.679045,990.5221 91.119643,985.24762 97.183211,980.34693"
       style="opacity:1;color:#000000;fill:none;fill-opacity:1;fill-rule:evenodd;stroke:#fdeb00;stroke-width:1px;stroke-linecap:round;stroke-linejoin:round;marker:none;marker-start:none;marker-mid:none;marker-end:none;stroke-miterlimit:4;stroke-dasharray:none;stroke-dashoffset:0;stroke-opacity:1;visibility:visible;display:inline;overflow:visible;enable-background:accumulate"
       id="path3255" />
    <path
       d="M 168.44942,871.931 C 178.22865,874.39784 186.06966,879.4196 186.86257,880.21251"
       style="opacity:1;color:#000000;fill:none;fill-opacity:1;fill-rule:evenodd;stroke:#fdeb00;stroke-width:1px;stroke-linecap:round;stroke-linejoin:round;marker:none;marker-start:none;marker-mid:none;marker-end:none;stroke-miterlimit:4;stroke-dasharray:none;stroke-dashoffset:0;stroke-opacity:1;visibility:visible;display:inline;overflow:visible;enable-background:accumulate"
       id="path3267" />
    <path
       d="M 152.011,862.87169 C 162.91416,846.73926 174.38174,846.0061 184.5443,848.97309 C 195.58458,852.19634 199.64871,861.84695 199.13,871.52698 C 198.61098,881.21288 192.15427,891.66338 180.07878,890.38063 C 167.88008,889.08479 163.88069,881.32134 164.32378,872.03421 C 164.7411,863.28741 173.00925,861.08045 179.47352,861.02783 C 186.26357,860.97256 192.01293,867.13398 194.72495,872.80316 C 195.81725,870.62292 196.85641,868.57906 196.1775,865.38926 C 195.4986,862.19945 191.79521,859.5097 190.69001,858.5271 C 189.5136,857.48119 189.81399,856.30461 188.43199,854.96997 C 187.04998,853.63533 184.16972,852.50487 180.60738,853.60596 C 179.67833,850.8188 172.78322,851.22442 170.74005,853.95836 C 167.62714,853.24988 162.39614,853.66275 161.40133,858.18722 C 156.14183,858.82423 153.00042,863.07446 153.47223,869.81657 C 150.04234,872.88672 149.60269,877.20282 153.64843,881.26972 C 151.14403,885.35088 151.00692,890.42879 157.34868,892.01807 C 156.84836,899.32981 163.4499,901.03483 166.6874,900.12337 C 169.58135,904.66209 174.5934,906.95812 177.61195,903.64742 C 181.97965,908.45497 187.2195,906.40986 189.5937,903.11881 C 195.08987,904.51612 198.96633,902.05101 201.22306,898.71375 C 205.3541,898.37214 209.36054,894.16812 209.75376,890.33788 C 214.40994,887.88357 214.82993,883.56035 213.38102,879.8601 C 216.84633,877.2758 217.66861,872.92948 214.79064,868.93556 C 218.90203,863.88443 217.37494,857.77608 212.85241,854.31077 C 214.26203,847.43888 210.20937,841.448 203.68989,840.74319 C 201.04685,832.40295 196.4656,830.22979 189.0651,831.40447 C 185.95219,826.23586 177.90562,824.59131 172.85448,827.52801 C 167.68588,825.23738 161.28386,825.23738 156.29146,830.17105 C 147.54008,829.52497 142.84135,834.69358 142.19528,840.91939 C 119.38554,847.19855 132.70802,865.56329 152.011,862.87169 z "
       style="opacity:1;color:#000000;fill:#000000;fill-opacity:1;fill-rule:evenodd;stroke:#fdeb00;stroke-width:1px;stroke-linecap:round;stroke-linejoin:round;marker:none;marker-start:none;marker-mid:none;marker-end:none;stroke-miterlimit:4;stroke-dasharray:none;stroke-dashoffset:0;stroke-opacity:1;visibility:visible;display:inline;overflow:visible;enable-background:accumulate"
       id="path3269" />
    <path
       d="M 131.19382,861.48864 C 130.97037,861.97669 126.90569,863.17104 122.51992,862.51255 C 119.47537,864.93842 117.28995,865.06282 113.78076,864.25469 C 109.49925,865.389 106.17201,864.68605 104.95186,863.89503 C 95.974087,871.19112 76.261001,897.47875 74.357382,902.2378 C 72.242954,907.52387 77.881428,908.75729 79.291047,906.64286 C 80.700666,904.52843 83.519903,901.00438 83.519903,901.00438 C 83.519903,901.00438 81.581677,903.64742 79.819654,906.11425 C 78.057631,908.58108 76.648012,906.99526 76.824214,910.34311 C 77.000417,913.69095 80.172059,921.44385 83.696105,919.68183 C 87.220152,917.91981 96.030268,911.92893 96.030268,911.92893 C 96.030268,911.92893 88.277366,917.3912 85.281926,918.97702 C 82.286487,920.56284 91.272805,925.67271 94.796852,923.38208 C 98.320898,921.09145 100.78773,915.80538 103.78317,915.62918 C 106.77861,915.45297 136.00616,909.35196 143.07628,906.11425 C 150.1464,902.87654 150.65299,897.83275 150.65299,897.83275"
       style="fill:#000000;fill-opacity:1;fill-rule:evenodd;stroke:#fdeb00;stroke-width:1px;stroke-linecap:round;stroke-linejoin:round;stroke-opacity:1"
       id="path3253" />
    <path
       d="M 127.03413,874.67623 C 123.738,881.96807 116.90006,879.20978 116.73358,876.86515 C 116.56087,874.43286 119.75006,869.29037 127.03413,874.67623 z "
       style="opacity:1;color:#000000;fill:none;fill-opacity:1;fill-rule:evenodd;stroke:#fdeb00;stroke-width:1px;stroke-linecap:round;stroke-linejoin:round;marker:none;marker-start:none;marker-mid:none;marker-end:none;stroke-miterlimit:4;stroke-dasharray:none;stroke-dashoffset:0;stroke-opacity:1;visibility:visible;display:inline;overflow:visible;enable-background:accumulate"
       id="path3257" />
    <path
       d="M 113.2981,881.18162 L 117.26265,878.18618"
       style="opacity:1;color:#000000;fill:none;fill-opacity:1;fill-rule:evenodd;stroke:#fdeb00;stroke-width:1px;stroke-linecap:round;stroke-linejoin:round;marker:none;marker-start:none;marker-mid:none;marker-end:none;stroke-miterlimit:4;stroke-dasharray:none;stroke-dashoffset:0;stroke-opacity:1;visibility:visible;display:inline;overflow:visible;enable-background:accumulate"
       id="path3259" />
    <path
       d="M 124.16847,875.42379 L 129.24441,875.01454"
       style="opacity:1;color:#000000;fill:none;fill-opacity:1;fill-rule:evenodd;stroke:#fdeb00;stroke-width:1px;stroke-linecap:round;stroke-linejoin:round;marker:none;marker-start:none;marker-mid:none;marker-end:none;stroke-miterlimit:4;stroke-dasharray:none;stroke-dashoffset:0;stroke-opacity:1;visibility:visible;display:inline;overflow:visible;enable-background:accumulate"
       id="path3261" />
  </g>
</svg>

<?xml version="1.0" encoding="UTF-8"?>
<svg version="1.0" viewBox="0 0 223.96 262.33" xmlns="http://www.w3.org/2000/svg" xmlns:cc="http://creativecommons.org/ns#" xmlns:dc="http://purl.org/dc/elements/1.1/" xmlns:rdf="http://www.w3.org/1999/02/22-rdf-syntax-ns#">
<metadata>
<rdf:RDF>
<cc:Work rdf:about="">
<dc:format>image/svg+xml</dc:format>
<dc:type rdf:resource="http://purl.org/dc/dcmitype/StillImage"/>
</cc:Work>
</rdf:RDF>
</metadata>
<g transform="translate(-12.917 -793.29)">
<path d="m13.917 794.29 4.0355 169.52c2.8825 121.08 211 121.08 213.88 0l4.0356-169.52h-221.96z" fill="#fdeb00" fill-rule="evenodd" stroke="#000" stroke-width="2"/>
<path d="m112.42 852.75c-0.23904-7.9848-5.3381-15.5-12.695-20.056-7.3017-4.5214-22.377-2.6754-28.116 4.2535-5.6885 6.8672-7.9538 22.293 3.2583 27.415 11.259 5.1437 18.531-6.3384 16.342-14.339-2.198-8.0327-7.4313-8.2264-15.176-7.8663 4.1202-6.6852 11.441-7.1716 16.739-1.6499 2.5963-1.375 8.5505 2.5574 7.7674 6.5688l-1.5706 16.292c0.23721 3.5923-2.7983 6.8937-7.6607 7.0428-0.75654 4.1831-5.409 7.453-11.094 4.2246-1.5573 2.4726-8.1274 4.4144-12.721-0.3431-5.6067 1.7086-10.104-2.1425-10.297-6.2871-5.4392-1.2884-7.1648-7.7415-6.4934-11.714-4.4971-4.7188-2.998-11.025 0.10936-14.192-2.0479-6.6098-0.11464-12.145 5.357-13.448 0.6477-6.8785 5.9191-10.964 11.008-10.621 2.7555-6.2435 8.9495-8.3623 15.237-6.5011 4.0982-5.0725 10.543-4.366 15.372-0.99798 7.0471-2.8385 12.983-0.50033 16.031 5.5832 9.1844-1.341 12.652 5.7655 12.161 11.253 6.0682 1.5374 8.7062 4.462 7.5413 11.229l-21.099 14.153z" color="#000000" fill-rule="evenodd" stroke="#fdeb00" stroke-linecap="round" stroke-linejoin="round" stroke-width="1px"/>
<path d="m104.98 864.01c-15.265-0.42174-21.988-7.5856-26.394-14.281 13.265-7.9929 26.665-1.2334 33.302 2.9954l-6.9087 11.286z" color="#000000" fill-rule="evenodd" stroke="#fdeb00" stroke-linecap="round" stroke-linejoin="round" stroke-width="1px"/>
<path d="m94.621 851.58c10.572 1.762 12.951 4.5813 13.744 5.3742" color="#000000" fill="none" stroke="#fdeb00" stroke-linecap="round" stroke-linejoin="round" stroke-width="1px"/>
<path d="m105.01 864.13 15.691 44.455c-5.9372 19.207-25.902 9.8673-42.289 47.927-3.7164 1.1265-8.698 7.3843-7.5767 10.748-4.3302 3.3989-6.7458 9.3618-2.643 14.977-5.2917 3.7536-1.7372 11.868 0.072986 14.126-2.6219 3.371-0.13539 11.352 3.0987 12.48-1.1112 6.6164 2.0137 13.233 7.1322 13.869 2.2427 6.4789 4.2257 8.719 9.4691 9.3446 5.2567 0.6272 28.961 2.6537 42.849-1.1852 13.772-3.807 40.133-12.011 41.252-19.421 1.1214-7.4273-4.3195-12.122-4.3195-12.122 1.9348-4.2289 1.0039-8.3331-0.17621-12.687 2.6182-3.394 3.8659-8.5324 2.8708-13.422 3.1682-3.5916 4.8412-9.7998 3.3994-14.014 3.065-4.6258 3.7626-9.5007 2.2176-14.251 2.5808-3.6575 2.6698-9.4331 1.762-12.717 1.1-3.686 3.1967-8.2442 1.3064-12.429 2.0807-4.5083 0.79744-9.3903-0.98423-14.397l-20.947-29.271c10.699 7.1783 23.153 8.2507 35.872 7.7743-3.328-8.5504-12.761-17.35-26.555-20.169l-24.316-24.939c-12.084-3.9497-15.639 2.3334-15.639 2.3334-4.0652-0.29733-6.6352 2.0218-7.5856 4.9639-3.1485 0.29122-6.4139 2.7012-8.0751 5.4836-2.3673 0.74756-6.3618 4.8538-5.8877 12.541z" fill-rule="evenodd" stroke="#fdeb00" stroke-linecap="round" stroke-linejoin="round" stroke-width="1px"/>
<path d="m79.117 951.94c-1.6197 6.6035-0.87216 13.705 0.62297 16.696-2.6165 3.7475-2.1596 9.8429 0.87216 13.082-0.41531 6.3128 0.7891 12.127 3.2394 16.322 1.8274-7.5172 7.268-12.792 13.332-17.692" color="#000000" fill="none" stroke="#fdeb00" stroke-linecap="round" stroke-linejoin="round" stroke-width="1px"/>
<path d="m168.45 871.93c9.7792 2.4668 17.62 7.4886 18.413 8.2815" color="#000000" fill="none" stroke="#fdeb00" stroke-linecap="round" stroke-linejoin="round" stroke-width="1px"/>
<path d="m152.01 862.87c10.903-16.132 22.371-16.866 32.533-13.899 11.04 3.2232 15.104 12.874 14.586 22.554-0.51902 9.6859-6.9757 20.136-19.051 18.854-12.199-1.2958-16.198-9.0593-15.755-18.346 0.41732-8.7468 8.6855-10.954 15.15-11.006 6.79-0.05527 12.539 6.1062 15.251 11.775 1.0923-2.1802 2.1315-4.2241 1.4526-7.4139-0.6789-3.1898-4.3823-5.8796-5.4875-6.8622-1.1764-1.0459-0.87602-2.2225-2.258-3.5571-1.382-1.3346-4.2623-2.4651-7.8246-1.364-0.92905-2.7872-7.8242-2.3815-9.8673 0.3524-3.1129-0.70848-8.3439-0.29561-9.3387 4.2289-5.2595 0.63701-8.4009 4.8872-7.9291 11.629-3.4299 3.0702-3.8695 7.3862 0.1762 11.453-2.5044 4.0812-2.6415 9.1591 3.7002 10.748-0.50032 7.3117 6.1012 9.0168 9.3387 8.1053 2.894 4.5387 7.906 6.8348 10.925 3.524 4.3677 4.8076 9.6076 2.7624 11.982-0.52861 5.4962 1.3973 9.3726-1.0678 11.629-4.4051 4.131-0.34161 8.1375-4.5456 8.5307-8.3759 4.6562-2.4543 5.0762-6.7775 3.6273-10.478 3.4653-2.5843 4.2876-6.9306 1.4096-10.925 4.1114-5.0511 2.5843-11.159-1.9382-14.625 1.4096-6.8719-2.643-12.863-9.1625-13.568-2.643-8.3402-7.2243-10.513-14.625-9.3387-3.1129-5.1686-11.159-6.8132-16.211-3.8765-5.1686-2.2906-11.571-2.2906-16.563 2.643-8.7514-0.64608-13.45 4.5225-14.096 10.748-22.81 6.2792-9.4873 24.644 9.8157 21.952z" color="#000000" fill-rule="evenodd" stroke="#fdeb00" stroke-linecap="round" stroke-linejoin="round" stroke-width="1px"/>
<path d="m131.19 861.49c-0.22345 0.48805-4.2881 1.6824-8.6739 1.0239-3.0446 2.4259-5.23 2.5503-8.7392 1.7421-4.2815 1.1343-7.6088 0.43136-8.8289-0.35966-8.9778 7.2961-28.691 33.584-30.594 38.343-2.1144 5.2861 3.524 6.5195 4.9337 4.4051s4.2289-5.6385 4.2289-5.6385-1.9382 2.643-3.7002 5.1099-3.1716 0.88101-2.9954 4.2289c0.1762 3.3478 3.3478 11.101 6.8719 9.3387 3.524-1.762 12.334-7.7529 12.334-7.7529s-7.7529 5.4623-10.748 7.0481c-2.9954 1.5858 5.9909 6.6957 9.5149 4.4051 3.524-2.2906 5.9909-7.5767 8.9863-7.7529 2.9954-0.17621 32.223-6.2772 39.293-9.5149s7.5767-8.2815 7.5767-8.2815" fill-rule="evenodd" stroke="#fdeb00" stroke-linecap="round" stroke-linejoin="round" stroke-width="1px"/>
<path d="m127.03 874.68c-3.2961 7.2918-10.134 4.5336-10.301 2.1889-0.17271-2.4323 3.0165-7.5748 10.301-2.1889z" color="#000000" fill="none" stroke="#fdeb00" stroke-linecap="round" stroke-linejoin="round" stroke-width="1px"/>
<path d="m113.3 881.18 3.9646-2.9954" color="#000000" fill="none" stroke="#fdeb00" stroke-linecap="round" stroke-linejoin="round" stroke-width="1px"/>
<path d="m124.17 875.42 5.0759-0.40925" color="#000000" fill="none" stroke="#fdeb00" stroke-linecap="round" stroke-linejoin="round" stroke-width="1px"/>
</g>
</svg>
